icons/desktop/16/svg/bookmarks-tray-16.svg

<svg width="16" height="16" viewBox="0 0 16 16" fill="none" xmlns="http://www.w3.org/2000/svg">
<path d="M2.5 13.0001C2.50008 13.2759 2.72426 13.5001 3 13.5001H13C13.2757 13.5001 13.4999 13.2759 13.5 13.0001V11.0001H15V13.0001C14.9999 14.1043 14.1042 15.0001 13 15.0001H3C1.89583 15.0001 1.00008 14.1043 1 13.0001V11.0001H2.5V13.0001Z" fill="black"/>
<path fill-rule="evenodd" clip-rule="evenodd" d="M6.6582 0.83022C7.21929 -0.315893 8.9091 -0.274189 9.39453 0.945454L10.1797 2.92006L12.3027 3.05776L12.4277 3.07143C13.6877 3.25205 14.1764 4.86888 13.1641 5.70913L13.1631 5.70815L11.5283 7.06557L12.0537 9.12612C12.3871 10.4384 10.9473 11.4905 9.79883 10.7648L7.99902 9.62807L6.20312 10.7648L6.20215 10.7638C5.05559 11.4891 3.61268 10.441 3.94824 9.12612L4.47363 7.06655L2.83887 5.70913L2.74512 5.62514C1.83036 4.7386 2.38609 3.14232 3.69824 3.05678L5.82031 2.91909L6.60742 0.944477L6.6582 0.83022ZM7.03906 3.91518C6.93196 4.18398 6.67936 4.36708 6.39062 4.38588L3.7959 4.55385L3.79688 4.55483L5.79688 6.21596C6.01913 6.40084 6.11513 6.69748 6.04395 6.97768L5.40234 9.49526L7.59961 8.10756L7.69434 8.05678C7.92108 7.95558 8.18647 7.97255 8.40039 8.10756L10.5996 9.49623L9.95801 6.97768C9.8868 6.69737 9.98361 6.40083 10.2061 6.21596L12.2061 4.55483L9.61035 4.38686C9.32174 4.36801 9.07 4.18483 8.96289 3.91616L8 1.50014L7.03906 3.91518Z" fill="black"/>
</svg>

<!-- This Source Code Form is subject to the terms of the Mozilla Public
   - License, v. 2.0. If a copy of the MPL was not distributed with this
   - file, You can obtain one at http://mozilla.org/MPL/2.0/. -->
<svg xmlns="http://www.w3.org/2000/svg" width="16" height="16" fill="context-fill" fill-opacity="context-fill-opacity" viewBox="0 0 16 16">
    <path d="M2.5 13a.5.5 0 0 0 .5.5h10a.5.5 0 0 0 .5-.5v-2H15v2a2 2 0 0 1-2 2H3a2 2 0 0 1-2-2v-2h1.5z" />
    <path d="M6.658.83C7.22-.316 8.91-.274 9.395.945l.785 1.975 2.123.138.125.013c1.26.181 1.748 1.798.736 2.638l-1.636 1.357.526 2.06c.333 1.312-1.107 2.365-2.255 1.639l-1.8-1.137-1.796 1.137v-.001c-1.147.725-2.59-.323-2.255-1.638l.526-2.06L2.839 5.71l-.094-.084c-.915-.886-.359-2.483.953-2.568L5.82 2.92 6.607.945zm.381 3.085a.75.75 0 0 1-.648.47l-2.595.169 2 1.662a.75.75 0 0 1 .248.762l-.642 2.517L7.6 8.108l.094-.051a.75.75 0 0 1 .706.05l2.2 1.39-.642-2.52a.75.75 0 0 1 .248-.761l2-1.661-2.596-.168a.75.75 0 0 1-.647-.47L8 1.5z" />
</svg>
